X: 170
T: Perhaps
M: 4/4
L: 1/8
C: Charlie Parker
Q: 1/4=185
K: C
%%text (medium)
%%vskip 20
"C"G2EF GABc|"Dm7"zG2A "G7"BAEF|"C"GAGE FGED-|"Gm7"D4 "C7"zc2A|
"F7"c2zE FGFE|"F#dim7"_EGAB- B2AG|"C/G"z3^G "Fdim7"z e zd|"Em7"BGE_B- "A7"B2z^G|
"Dm7"A2zc edcA|"G7"_AFGF z3G|"C"E2zG "Dm7"F2zA|"G7"G2z2 z4|]
